src/assets/filled/TimerPause.svg

<svg width="24" height="24" viewBox="0 0 24 24"  xmlns="http://www.w3.org/2000/svg">
<path d="M14.8899 3.45H9.10989C8.70989 3.45 8.38989 3.13 8.38989 2.73C8.38989 2.33 8.70989 2 9.10989 2H14.8899C15.2899 2 15.6099 2.32 15.6099 2.72C15.6099 3.12 15.2899 3.45 14.8899 3.45Z" />
<path d="M14.0001 19.9704V17.0304C14.0001 15.2204 15.2201 14.0004 17.0301 14.0004H19.9701C20.2001 14.0004 20.4201 14.0204 20.6301 14.0604C20.6501 13.8204 20.6701 13.5804 20.6701 13.3304C20.6701 8.54039 16.7801 4.65039 12.0001 4.65039C7.22008 4.65039 3.33008 8.54039 3.33008 13.3304C3.33008 18.1104 7.22008 22.0004 12.0001 22.0004C12.8501 22.0004 13.6601 21.8604 14.4401 21.6404C14.1601 21.1704 14.0001 20.6104 14.0001 19.9704ZM12.7501 13.0004C12.7501 13.4104 12.4101 13.7504 12.0001 13.7504C11.5901 13.7504 11.2501 13.4104 11.2501 13.0004V8.00039C11.2501 7.59039 11.5901 7.25039 12.0001 7.25039C12.4101 7.25039 12.7501 7.59039 12.7501 8.00039V13.0004Z" />
<path d="M19.97 15H17.04C15.76 15 15 15.76 15 17.03V19.97C15 21.24 15.76 22 17.04 22H19.97C21.24 22 22 21.24 22 19.97V17.03C22 15.76 21.24 15 19.97 15ZM17.92 20.06C17.92 20.38 17.66 20.64 17.33 20.64C17.01 20.64 16.75 20.38 16.75 20.06V16.94C16.75 16.62 17.01 16.36 17.33 16.36C17.66 16.36 17.92 16.62 17.92 16.94V20.06ZM20.25 20.06C20.25 20.38 19.99 20.64 19.67 20.64C19.35 20.64 19.08 20.38 19.08 20.06V16.94C19.08 16.62 19.35 16.36 19.67 16.36C19.99 16.36 20.25 16.62 20.25 16.94V20.06Z" />
</svg>

<?xml version="1.0" encoding="UTF-8"?>
<svg width="24" height="24" viewBox="0 0 24 24" xmlns="http://www.w3.org/2000/svg">
 <path d="m14.89 3.45h-5.78c-0.4 0-0.72-0.32-0.72-0.72s0.32-0.73 0.72-0.73h5.78c0.4 0 0.72 0.32 0.72 0.72s-0.32 0.73-0.72 0.73z"/>
 <path d="m14 19.97v-2.94c0-1.81 1.22-3.03 3.03-3.03h2.94c0.23 0 0.45 0.02 0.66 0.06 0.02-0.24 0.04-0.48 0.04-0.73 0-4.79-3.89-8.68-8.67-8.68-4.78 0-8.67 3.89-8.67 8.68 0 4.78 3.89 8.67 8.67 8.67 0.85 0 1.66-0.14 2.44-0.36-0.28-0.47-0.44-1.03-0.44-1.67zm-1.25-6.97c0 0.41-0.34 0.75-0.75 0.75s-0.75-0.34-0.75-0.75v-5c0-0.41 0.34-0.75 0.75-0.75s0.75 0.34 0.75 0.75v5z"/>
 <path d="m19.97 15h-2.93c-1.28 0-2.04 0.76-2.04 2.03v2.94c0 1.27 0.76 2.03 2.04 2.03h2.93c1.27 0 2.03-0.76 2.03-2.03v-2.94c0-1.27-0.76-2.03-2.03-2.03zm-2.05 5.06c0 0.32-0.26 0.58-0.59 0.58-0.32 0-0.58-0.26-0.58-0.58v-3.12c0-0.32 0.26-0.58 0.58-0.58 0.33 0 0.59 0.26 0.59 0.58v3.12zm2.33 0c0 0.32-0.26 0.58-0.58 0.58s-0.59-0.26-0.59-0.58v-3.12c0-0.32 0.27-0.58 0.59-0.58s0.58 0.26 0.58 0.58v3.12z"/>
</svg>
